X:1
T:Irish Jig 001
C:Generated
M:6/8
L:1/8
Q:1/4=118
K:G
|: A G G G G G | D E ^F D C B | D C B G A B | C ^F C D C B | C B A C D E | G A B A E A | G A B D g D | G C G C g C | :|
|: B ^F B C D E | G G G D C B | A B C D g D | C B A G D G | D g D G A B | B C D C B A | A B C G A B | B E B C g C | :|
